X:1
T:Just a Little Help from You
T:George Coles Stebbins
T:Just a Little Help from You
T:Public Domain
T:Public Domain
C:George Coles Stebbins
Z:Public Domain
%%score ( 1 2 ) 3
L:1/8
M:4/4
K:D
V:1 treble 
V:2 treble 
V:3 bass 
V:1
 [DF]2 [DG]2 [DF]2 [DE]2 | D4 [CE]4 | [DF]4 [FA]4 | [FA]6 [FA]2 | [EG]2 [DF]2 [EG]2 [FA]2 | %5
w: 1.~Do you ev- er|stop, my|to think,|The while|this world you’re pass-|
w: 2.~Just a lit- tle|deed of|ness now,|It may|the faith of one|
w: 3.~Just a lit- tle|word of|sus’ love,|Some pre-|cious soul may help|
w: 4.~Let us do our|part, ere|is done,|And to|our call- ing faith-|
 [GB]4 [FA]4 | [CE]8- | [CE]6 z2 | [DF]2 [DG]2 [DF]2 [DE]2 | D4 [CE]4 | [DF]4 [FA]4 | [FA]4 [GB]4 | %12
w: ing thro’|Some-||one may be saved|from ru-|brink, By|just a|
w: re- store,|Who||be- neath some load|of grief|bow, Is|al- most|
w: de- cide|To||for- sake the wrong|and look|bove, And|let the|
w: ful be;|For||the world to Christ|must now|won, By|help of|
 [FA]2 [DF]2 [DE]2 D2 | [CE]4 [CF]4 | D8- | D6 z2 ||"^Refrain" [Fd]2 [Fd]2 [Fc]2 [FB]2 | %17
w: lit- tle help from|Just a|lit-||help from you, Just|
w: rea- dy to give|||||
w: Lord his foot- steps|||||
w: you, by help of|||||
 [FA]4 [GB]4 | [DF]8- | [DF]6 z2 | [FA]2 [FA]2 [^E^G]2 [FA]2 | [^DB]4 [DF]4 | [EG]8- | [EG]6 z2 | %24
w: a lit-|tle||help from you; Won-|drous things|the||
w: |||||||
w: |||||||
w: |||||||
 [Gc]4 [Gc]4 | [GB]4 [GA]4 | [Fd]4 [Fd]4 | [FA]4 [GB]4 | [FA]2 [DF]2 [DE]2 D2 | [CE]4 [CF]4 | D8- | %31
w: Lord may|do, By|just a|lit- tle|help from you. *|||
w: |||||||
w: |||||||
w: |||||||
 D6 z2 |] %32
w: |
w: |
w: |
w: |
V:2
 x8 | D4 x4 | x8 | x8 | x8 | x8 | x8 | x8 | x8 | D4 x4 | x8 | x8 | x6 D2 | x8 | D8- | D6 x2 || x8 | %17
w: |friend,||||||||in’s|||you?|||tle||
w: |kind-||||||||doth|||o’er.|||||
w: |Je-||||||||a-|||guide.|||||
w: |day||||||||be|||me.|||||
 x8 | x8 | x8 | x8 | x8 | x8 | x8 | x8 | x8 | x8 | x8 | x6 D2 | x8 | D8- | D6 x2 |] %32
w: |||||||||||||||
w: |||||||||||||||
w: |||||||||||||||
w: |||||||||||||||
V:3
 [D,A,]2 [D,B,]2 [D,A,]2 [D,G,]2 | [D,F,]4 [A,,A,]4 | [D,A,]4 [D,D]4 | [D,D]6 [D,A,]2 | %4
w: ~ ~ ~ ~|~ ~|~ ~|~ ~|
 [A,,A,]2 [A,,A,]2 [A,,A,]2 [A,,A,]2 | [C,A,]4 [D,A,]4 | [A,,A,]8- | [A,,A,]6 z2 | %8
w: ~ ~ ~ ~|~ ~|~||
 [D,A,]2 [D,B,]2 [D,A,]2 [D,G,]2 | [D,F,]4 [A,,A,]4 | [D,B,]4 [D,D]4 | [D,D]4 [D,D]4 | %12
w: ~ ~ ~ ~|~ ~|~ ~|~ ~|
 [D,D]2 [D,A,]2 [D,G,]2 [D,F,]2 | [A,,G,]4 [A,,A,]4 | [D,F,]8- | [D,F,]6 z2 || [D,A,]6 z2 | %17
w: ~ ~ ~ ~|~ ~|~||Just|
 [D,D]6 z2 | [D,A,]2 [D,D]2 [D,C]2 [D,B,]2 | [D,A,]6 z2 | [D,D]6 z2 | [B,,A,]6 z2 | %22
w: a|lit- tle help from|you,|Just|a|
 [E,B,]2 [E,D]2 [E,C]2 [E,D]2 | [E,B,]6 z2 | [A,E]4 [A,E]4 | [A,D]4 [A,C]4 | [D,A,]4 [D,A,]4 | %27
w: lit- tle help from|you||||
 [D,D]4 [D,D]4 | [D,D]2 [D,A,]2 [D,G,]2 [D,F,]2 | [A,,G,]4 [A,,A,]4 | [D,F,]8- | [D,F,]6 z2 |] %32
w: |||||

